X: 20
T: Roxburgh House
%R: jig
B: "Twenty Four Country Dances for the Year 1780", Thomas Skillern, ed. p.10 #2
F: http://www.vwml.org/browse/browse-collections-dance-tune-books/browse-skillerns1780#
Z: 2014 John Chambers <jc:trillian.mit.edu>
M: 6/8
L: 1/8
K: D
a |\
d2A e2A | f3 d2f | efg fge | d3 A2a |\
d2A e2A | f3 d2f | efg fge | d3- d2 :|
|: a |\
agf fga | b2g e2g | gfe efg | a2f d2a |\
d2A e2A | f3 d2a | bag fge | d3- d2 :|
%%begintext align
%%   Cast off one Cu. and cross over the
%% next Cu .|. cast up one Cu: cross up to
%% the top :|. Lead down two Cu: up again
%% and cast off .|: turn your Partner with
%% the right hand turn with the Left hand
%% :|:
%%endtext

%%sep 1 1 500
%%sep 1 1 500
